public/assets/sone_menu_v2.svg

<svg width="18" height="15" viewBox="0 0 18 15" fill="none" xmlns="http://www.w3.org/2000/svg">
    <path d="M1 8.57054H13C13.5523 8.57054 14 8.09091 14 7.49914C14 6.90736 13.5523 6.42773 13 6.42773H1C0.447667 6.42773 0 6.90736 0 7.49914C0 8.09091 0.447667 8.57054 1 8.57054Z" fill="#EBEAF6"/>
    <path d="M1 14.9997H17C17.5523 14.9997 18 14.5201 18 13.9283C18 13.3366 17.5523 12.8569 17 12.8569H1C0.447667 12.8569 0 13.3366 0 13.9283C0 14.5201 0.447667 14.9997 1 14.9997Z" fill="#EBEAF6"/>
    <path d="M17 0H1C0.447667 0 0 0.47963 0 1.0714C0 1.66317 0.447667 2.1428 1 2.1428H17C17.5523 2.1428 18 1.66317 18 1.0714C18 0.47963 17.5523 0 17 0Z" fill="#EBEAF6"/>
</svg>

<svg width="18" height="15" fill="none" xmlns="http://www.w3.org/2000/svg"><path d="M1 8.57h12c.55 0 1-.48 1-1.07 0-.6-.45-1.07-1-1.07H1c-.55 0-1 .48-1 1.07 0 .6.45 1.07 1 1.07zM1 15h16c.55 0 1-.48 1-1.07 0-.6-.45-1.07-1-1.07H1c-.55 0-1 .48-1 1.07C0 14.52.45 15 1 15zM17 0H1C.45 0 0 .48 0 1.07c0 .6.45 1.07 1 1.07h16c.55 0 1-.48 1-1.07C18 .48 17.55 0 17 0z" fill="#EBEAF6"/></svg>
